assets/icons/lock-stroke.svg

<svg xmlns="http://www.w3.org/2000/svg" viewBox="0 0 24 24" role="presentation" aria-hidden="true"><path fill-rule="evenodd" clip-rule="evenodd" d="M7.65625 10.957C6.96589 10.957 6.40625 11.5167 6.40625 12.207V18.207C6.40625 18.8974 6.96589 19.457 7.65625 19.457H17.6562C18.3466 19.457 18.9062 18.8974 18.9062 18.207V12.207C18.9062 11.5167 18.3466 10.957 17.6562 10.957H7.65625ZM4.90625 12.207C4.90625 10.6882 6.13747 9.45703 7.65625 9.45703H17.6562C19.175 9.45703 20.4062 10.6882 20.4062 12.207V18.207C20.4062 19.7258 19.175 20.957 17.6562 20.957H7.65625C6.13747 20.957 4.90625 19.7258 4.90625 18.207V12.207Z" fill="currentColor"/><path fill-rule="evenodd" clip-rule="evenodd" d="M12.6562 16.2857C12.5379 16.2857 12.442 16.3817 12.442 16.5C12.442 16.6183 12.5379 16.7143 12.6562 16.7143C12.7746 16.7143 12.8705 16.6183 12.8705 16.5C12.8705 16.3817 12.7746 16.2857 12.6562 16.2857ZM11.1562 16.5C11.1562 15.6716 11.8278 15 12.6562 15C13.4847 15 14.1562 15.6716 14.1562 16.5C14.1562 17.3284 13.4847 18 12.6562 18C11.8278 18 11.1562 17.3284 11.1562 16.5Z" fill="currentColor"/><path fill-rule="evenodd" clip-rule="evenodd" d="M12.6564 4.54102C11.7856 4.54102 10.9505 4.88694 10.3347 5.50268C9.71897 6.11843 9.37305 6.95356 9.37305 7.82436V9.6577C9.37305 10.0719 9.03726 10.4077 8.62305 10.4077C8.20883 10.4077 7.87305 10.0719 7.87305 9.6577V7.82436C7.87305 6.55574 8.377 5.33908 9.27406 4.44202C10.1711 3.54497 11.3878 3.04102 12.6564 3.04102C13.925 3.04102 15.1417 3.54497 16.0387 4.44202C16.9358 5.33908 17.4397 6.55574 17.4397 7.82436V9.6577C17.4397 10.0719 17.1039 10.4077 16.6897 10.4077C16.2755 10.4077 15.9397 10.0719 15.9397 9.6577V7.82436C15.9397 6.95356 15.5938 6.11843 14.9781 5.50268C14.3623 4.88694 13.5272 4.54102 12.6564 4.54102Z" fill="currentColor"/></svg>

<svg xmlns="http://www.w3.org/2000/svg" aria-hidden="true" viewBox="0 0 24 24"><path fill="currentColor" fill-rule="evenodd" d="M7.656 10.957c-.69 0-1.25.56-1.25 1.25v6c0 .69.56 1.25 1.25 1.25h10c.69 0 1.25-.56 1.25-1.25v-6c0-.69-.56-1.25-1.25-1.25zm-2.75 1.25a2.75 2.75 0 0 1 2.75-2.75h10a2.75 2.75 0 0 1 2.75 2.75v6a2.75 2.75 0 0 1-2.75 2.75h-10a2.75 2.75 0 0 1-2.75-2.75z" clip-rule="evenodd"/><path fill="currentColor" fill-rule="evenodd" d="M12.656 16.286a.214.214 0 1 0 0 .428.214.214 0 0 0 0-.428m-1.5.214a1.5 1.5 0 1 1 3 0 1.5 1.5 0 0 1-3 0m1.5-11.959a3.284 3.284 0 0 0-3.283 3.283v1.834a.75.75 0 0 1-1.5 0V7.824a4.783 4.783 0 1 1 9.567 0v1.834a.75.75 0 0 1-1.5 0V7.824a3.283 3.283 0 0 0-3.284-3.283" clip-rule="evenodd"/></svg>
